X:678
T:Mrs. Adie
T:Mrs. Adye's
R:Strathspey
C:Major William Logan
B:The Athole Collection
M:C
L:1/8
K:B_
d|B<B ~B2 c>A F<A|B<B c>B A<F F>B|G<A B>G F>D B,<D|
E<G F>E D<B,B,:|
f|d>Bf>B b>Bf>B|A/B/c c>B A<F F2|G>A B>G F>DB,>D|E<G F>E D<B, B,>B|
d>B f<B b<Bf<B|A/B/c c>B A<F ~F>_A|G<E E>G F<D D>F|E<C C>F D<B,B||
"Last time only"
||(3GEE (3EFG (3FDD (3DEF|(3ECC (3CDF (3DB,B, B,||

